X: 1
T: the Daffodil
C: Nancy Dickson
R: strathspey
Z: 2011 John Chambers <jc:trillian.mit.edu>
M: C
L: 1/8
K: C
e |\
"Adim"f<B ^f>a "C"g<e e>G | "G7"G<F d>F "C"F<E c>e |\
"Adim"f<B ^f>a "C"g>e c>e | "G7"d<g "D7"^f>d' "G"g2 "G7"G2 |
"G"G<F F>A "C"A<G G>c | "G7"c<B d>F "C"A<G G>G |\
"G"G<F F>A "C7"G>c e<g | "Dm"a>f "G7"B<g "C"c2 "Am"c2 ||
"E7"B<E E>B "Am"c<A A>c | "E7"G<E E>B "Am"c2 c2 |\
"G"d<G G>d "C"e<c c>e | "G7"d<G g>f "C"e2 e2 |
"Dm"f>d Af "Am"e>c E<e | "E7"d>B E<d "Cm"c2 c2 |\
"D7"A>B c<d "C"e>f ^f>g  | "G7"a>f B<g "C"c2 c2 |]
